icon-themes/breeze_svg/cmd/32/reverseorder.svg

<svg viewBox="0 0 32 32" xmlns="http://www.w3.org/2000/svg"><path d="m4 4v1h24v-1zm6.998047 4.5-.998047 1-4 4 .7050781.707031 3.7929689-3.792969v11.085938h1v-11.085938l3.792969 3.792969.707031-.707031-4-4-.998047-1zm9.5 2v11.085938l-3.791016-3.792969-.707031.707031 4 4 1 1 .998047-1 4-4-.705078-.707031-3.794922 3.792969v-11.085938zm-16.498047 16.5v1h24v-1z" fill="#4d4d4d"/></svg>

<svg xmlns="http://www.w3.org/2000/svg" viewBox="0 0 32 32">
 <path 
     style="fill:#4d4d4d" 
     d="M 4 4 L 4 5 L 28 5 L 28 4 L 4 4 z M 10.998047 8.5 L 10 9.5 L 6 13.5 L 6.7050781 14.207031 L 10.498047 10.414062 L 10.498047 21.5 L 11.498047 21.5 L 11.498047 10.414062 L 15.291016 14.207031 L 15.998047 13.5 L 11.998047 9.5 L 11 8.5 L 10.998047 8.5 z M 20.498047 10.5 L 20.498047 21.585938 L 16.707031 17.792969 L 16 18.5 L 20 22.5 L 21 23.5 L 21.998047 22.5 L 25.998047 18.5 L 25.292969 17.792969 L 21.498047 21.585938 L 21.498047 10.5 L 20.498047 10.5 z M 4 27 L 4 28 L 28 28 L 28 27 L 4 27 z "
     />
</svg>
